%
(Header)
(Generated by gcodetools from Inkscape.)
(Using default header. To add your own header create file "header" in the output dir.)
M3
(Header end.)
G21 (All units in mm)

(Start cutting path id: path3372)
(Change tool to Cone cutter)

G00 Z10.000000
G00 X67.802776 Y18.530370

G01 Z-1.000000 F100.0(Penetrate)
G01 X69.223863 Y18.530370 Z-1.000000 F400.000000
G01 X69.223863 Y16.752260 Z-1.000000
G01 X67.802776 Y16.752260 Z-1.000000
G01 X67.802776 Y18.530370 Z-1.000000
G01 X67.802776 Y18.530370 Z-1.000000
G00 Z10.000000

(End cutting path id: path3372)


(Start cutting path id: path3372)
(Change tool to Cone cutter)

G00 Z10.000000
G00 X67.802776 Y27.203908

G01 Z-1.000000 F100.0(Penetrate)
G01 X69.223863 Y27.203908 Z-1.000000 F400.000000
G01 X69.223863 Y22.618624 Z-1.000000
G01 X69.083856 Y20.119467 Z-1.000000
G01 X67.949785 Y20.119467 Z-1.000000
G01 X67.802776 Y22.618624 Z-1.000000
G01 X67.802776 Y27.203908 Z-1.000000
G01 X67.802776 Y27.203908 Z-1.000000
G00 Z10.000000

(End cutting path id: path3372)


(Start cutting path id: path3370)
(Change tool to Cone cutter)

G00 Z10.000000
G00 X58.485198 Y23.402671

G01 Z-1.000000 F100.0(Penetrate)
G01 X58.485198 Y27.644934 Z-1.000000 F400.000000
G01 X59.773277 Y27.644934 Z-1.000000
G01 X59.773277 Y16.752260 Z-1.000000
G01 X58.485198 Y16.752260 Z-1.000000
G01 X58.485198 Y17.928330 Z-1.000000
G02 X58.007018 Y17.302070 Z-1.000000 I-2.700670 J1.566403
G02 X57.456134 Y16.885268 Z-1.000000 I-1.708226 J1.685301
G02 X56.816034 Y16.643599 Z-1.000000 I-1.187916 J2.177844
G02 X55.972040 Y16.549246 Z-1.000000 I-0.843994 J3.727629
G02 X54.694280 Y16.845160 Z-1.000000 I-0.000000 J2.906645
G02 X53.654897 Y17.683316 Z-1.000000 I1.324248 J2.705717
G02 X53.022532 Y18.906009 Z-1.000000 I2.904763 J2.277187
G02 X52.765843 Y20.665502 Z-1.000000 I5.901933 J1.759493
G02 X53.022532 Y22.424992 Z-1.000000 I6.158607 J0.000000
G02 X53.654897 Y23.647685 Z-1.000000 I3.537130 J-1.054495
G02 X54.694280 Y24.485841 Z-1.000000 I2.363632 J-1.867560
G02 X55.972040 Y24.781756 Z-1.000000 I1.277760 J-2.610731
G02 X56.815125 Y24.685591 Z-1.000000 I-0.000000 J-3.743802
G02 X57.456134 Y24.438734 Z-1.000000 I-0.552459 J-2.390235
G02 X58.006359 Y24.027613 Z-1.000000 I-1.112328 J-2.062444
G02 X58.485198 Y23.402671 Z-1.000000 I-2.184363 J-2.169606
G01 X58.485198 Y23.402671 Z-1.000000
G00 Z10.000000

(End cutting path id: path3370)


(Start cutting path id: path3370)
(Change tool to Cone cutter)

G00 Z10.000000
G00 X54.095925 Y20.665502

G01 Z-1.000000 F100.0(Penetrate)
G03 X54.270600 Y19.300470 Z-1.000000 I5.421004 J-0.000000 F400.000000
G03 X54.676961 Y18.432362 Z-1.000000 I2.545124 J0.662211
G03 X55.374426 Y17.842756 Z-1.000000 I1.563162 J1.141786
G03 X56.287059 Y17.627312 Z-1.000000 I0.912633 J1.825262
G03 X57.199694 Y17.842756 Z-1.000000 I0.000000 J2.040715
G03 X57.897159 Y18.432362 Z-1.000000 I-0.865695 J1.731390
G03 X58.308637 Y19.301629 Z-1.000000 I-2.121498 J1.536259
G03 X58.485198 Y20.665502 Z-1.000000 I-5.179459 J1.363873
G03 X58.308172 Y22.028822 Z-1.000000 I-5.338148 J-0.000000
G03 X57.897159 Y22.891640 Z-1.000000 I-2.494262 J-0.658864
G03 X57.198435 Y23.486872 Z-1.000000 I-1.573652 J-1.139540
G03 X56.287059 Y23.703689 Z-1.000000 I-0.911376 J-1.807041
G03 X55.375686 Y23.486872 Z-1.000000 I0.000000 J-2.023850
G03 X54.676961 Y22.891640 Z-1.000000 I0.874930 J-1.734774
G03 X54.271062 Y22.029990 Z-1.000000 I2.100118 J-1.515737
G03 X54.095925 Y20.665502 Z-1.000000 I5.227792 J-1.364487
G01 X54.095925 Y20.665502 Z-1.000000
G00 Z10.000000

(End cutting path id: path3370)


(Start cutting path id: path3368)
(Change tool to Cone cutter)

G00 Z10.000000
G00 X49.349630 Y27.644934

G01 Z-1.000000 F100.0(Penetrate)
G01 X50.637712 Y27.644934 Z-1.000000 F400.000000
G01 X50.637712 Y16.752260 Z-1.000000
G01 X49.349630 Y16.752260 Z-1.000000
G01 X49.349630 Y27.644934 Z-1.000000
G01 X49.349630 Y27.644934 Z-1.000000
G00 Z10.000000

(End cutting path id: path3368)


(Start cutting path id: path3366)
(Change tool to Cone cutter)

G00 Z10.000000
G00 X47.984547 Y23.388670

G01 Z-1.000000 F100.0(Penetrate)
G03 X47.760229 Y23.495823 Z-1.000000 I-0.776808 J-1.337828 F400.000000
G03 X47.508517 Y23.570681 Z-1.000000 I-0.616523 J-1.612452
G03 X47.254389 Y23.616531 Z-1.000000 I-0.471428 J-1.885733
G03 X46.948481 Y23.633684 Z-1.000000 I-0.305909 J-2.719221
G03 X45.952181 Y23.430754 Z-1.000000 I-0.000000 J-2.547170
G03 X45.268378 Y22.919642 Z-1.000000 I0.702389 J-1.652683
G03 X44.864449 Y22.149161 Z-1.000000 I1.650693 J-1.356508
G03 X44.687342 Y20.882514 Z-1.000000 I4.440895 J-1.266647
G01 X44.687342 Y16.752260 Z-1.000000
G01 X43.392261 Y16.752260 Z-1.000000
G01 X43.392261 Y24.592746 Z-1.000000
G01 X44.687342 Y24.592746 Z-1.000000
G01 X44.687342 Y23.374669 Z-1.000000
G02 X45.170683 Y24.008873 Z-1.000000 I2.590668 J-1.473122
G02 X45.744408 Y24.431735 Z-1.000000 I1.683556 J-1.683556
G02 X46.420382 Y24.682718 Z-1.000000 I1.242999 J-2.311981
G02 X47.326506 Y24.781756 Z-1.000000 I0.906124 J-4.095697
G02 X47.459207 Y24.777023 Z-1.000000 I0.000000 J-1.862889
G02 X47.620523 Y24.760758 Z-1.000000 I-0.197841 J-2.770275
G02 X47.781006 Y24.742780 Z-1.000000 I-0.281576 J-3.238754
G02 X47.977545 Y24.711756 Z-1.000000 I-0.671107 J-4.889575
G01 X47.984544 Y23.388673 Z-1.000000
G01 X47.984547 Y23.388670 Z-1.000000
G00 Z10.000000

(End cutting path id: path3366)


(Start cutting path id: path3364)
(Change tool to Cone cutter)

G00 Z10.000000
G00 X37.714909 Y23.689688

G01 Z-1.000000 F100.0(Penetrate)
G03 X36.788150 Y23.472585 Z-1.000000 I-0.000000 J-2.086603 F400.000000
G03 X36.076807 Y22.877639 Z-1.000000 I0.879659 J-1.774488
G03 X35.654819 Y22.012712 Z-1.000000 I2.059758 J-1.540338
G03 X35.474770 Y20.665502 Z-1.000000 I4.950220 J-1.347210
G03 X35.652484 Y19.316557 Z-1.000000 I5.208485 J-0.000000
G03 X36.069808 Y18.446363 Z-1.000000 I2.531088 J0.678683
G03 X36.780248 Y17.857744 Z-1.000000 I1.574796 J1.177671
G03 X37.714909 Y17.641313 Z-1.000000 I0.934661 J1.909958
G03 X38.635034 Y17.857691 Z-1.000000 I0.000000 J2.064555
G03 X39.346010 Y18.453365 Z-1.000000 I-0.886001 J1.779635
G03 X39.768843 Y19.324599 Z-1.000000 I-2.101974 J1.558367
G03 X39.948049 Y20.665502 Z-1.000000 I-4.927022 J1.340903
G03 X39.769216 Y21.999526 Z-1.000000 I-5.065065 J-0.000000
G03 X39.346010 Y22.870637 Z-1.000000 I-2.529793 J-0.690677
G03 X38.633783 Y23.471939 Z-1.000000 I-1.607490 J-1.181571
G03 X37.714909 Y23.689688 Z-1.000000 I-0.918874 J-1.829893
G01 X37.714909 Y23.689688 Z-1.000000
G00 Z10.000000

(End cutting path id: path3364)


(Start cutting path id: path3364)
(Change tool to Cone cutter)

G00 Z10.000000
G00 X37.714909 Y24.781756

G01 Z-1.000000 F100.0(Penetrate)
G02 X39.256349 Y24.475432 Z-1.000000 I-0.000000 J-4.031473 F400.000000
G02 X40.354074 Y23.689688 Z-1.000000 I-1.137349 J-2.748596
G02 X41.030581 Y22.491164 Z-1.000000 I-2.518494 J-2.211754
G02 X41.313132 Y20.665502 Z-1.000000 I-5.756833 J-1.825662
G02 X41.031530 Y18.845973 Z-1.000000 I-6.019103 J0.000000
G02 X40.354074 Y17.641313 Z-1.000000 I-3.232902 J1.025248
G02 X39.256349 Y16.855570 Z-1.000000 I-2.235074 J1.962853
G02 X37.714909 Y16.549246 Z-1.000000 I-1.541440 J3.725149
G02 X36.166735 Y16.856156 Z-1.000000 I0.000000 J4.058255
G02 X35.068746 Y17.641313 Z-1.000000 I1.132402 J2.743899
G02 X34.396519 Y18.844731 Z-1.000000 I2.566151 J2.222907
G02 X34.116686 Y20.665502 Z-1.000000 I5.783625 J1.820771
G02 X34.397463 Y22.492414 Z-1.000000 I6.083902 J-0.000000
G02 X35.068746 Y23.689688 Z-1.000000 I3.200283 J-1.007498
G02 X36.166735 Y24.474846 Z-1.000000 I2.230392 J-1.958741
G02 X37.714909 Y24.781756 Z-1.000000 I1.548174 J-3.751345
G01 X37.714909 Y24.781756 Z-1.000000
G00 Z10.000000

(End cutting path id: path3364)


(Start cutting path id: path3362)
(Change tool to Cone cutter)

G00 Z10.000000
G00 X20.472841 Y27.203908

G01 Z-1.000000 F100.0(Penetrate)
G01 X21.900929 Y27.203908 Z-1.000000 F400.000000
G01 X24.099065 Y18.369359 Z-1.000000
G01 X26.290202 Y27.203908 Z-1.000000
G01 X27.879300 Y27.203908 Z-1.000000
G01 X30.077436 Y18.369359 Z-1.000000
G01 X32.268572 Y27.203908 Z-1.000000
G01 X33.703662 Y27.203908 Z-1.000000
G01 X31.078498 Y16.752260 Z-1.000000
G01 X29.300388 Y16.752260 Z-1.000000
G01 X27.095251 Y25.824821 Z-1.000000
G01 X24.869113 Y16.752260 Z-1.000000
G01 X23.091003 Y16.752260 Z-1.000000
G01 X20.472841 Y27.203908 Z-1.000000
G01 X20.472841 Y27.203908 Z-1.000000
G00 Z10.000000

(End cutting path id: path3362)


(Start cutting path id: path3360)
(Change tool to Cone cutter)

G00 Z10.000000
G00 X51.939793 Y41.610800

G01 Z-1.000000 F100.0(Penetrate)
G03 X51.013031 Y41.393696 Z-1.000000 I0.000000 J-2.086606 F400.000000
G03 X50.301690 Y40.798750 Z-1.000000 I0.879654 J-1.774476
G03 X49.879702 Y39.933823 Z-1.000000 I2.059756 J-1.540337
G03 X49.699654 Y38.586613 Z-1.000000 I4.950222 J-1.347210
G03 X49.877367 Y37.237666 Z-1.000000 I5.208510 J0.000000
G03 X50.294688 Y36.367475 Z-1.000000 I2.531081 J0.678678
G03 X51.005131 Y35.778856 Z-1.000000 I1.574802 J1.177681
G03 X51.939793 Y35.562425 Z-1.000000 I0.934661 J1.909963
G03 X52.859917 Y35.778803 Z-1.000000 I0.000000 J2.064559
G03 X53.570893 Y36.374475 Z-1.000000 I-0.885998 J1.779635
G03 X53.993724 Y37.245710 Z-1.000000 I-2.101987 J1.558367
G03 X54.172930 Y38.586613 Z-1.000000 I-4.927047 J1.340903
G03 X53.994097 Y39.920638 Z-1.000000 I-5.065095 J-0.000000
G03 X53.570893 Y40.791749 Z-1.000000 I-2.529804 J-0.690676
G03 X52.858667 Y41.393051 Z-1.000000 I-1.607489 J-1.181572
G03 X51.939793 Y41.610800 Z-1.000000 I-0.918874 J-1.829894
G01 X51.939793 Y41.610800 Z-1.000000
G00 Z10.000000

(End cutting path id: path3360)


(Start cutting path id: path3360)
(Change tool to Cone cutter)

G00 Z10.000000
G00 X51.939793 Y42.702868

G01 Z-1.000000 F100.0(Penetrate)
G02 X53.481230 Y42.396544 Z-1.000000 I-0.000000 J-4.031460 F400.000000
G02 X54.578954 Y41.610800 Z-1.000000 I-1.137352 J-2.748598
G02 X55.255463 Y40.412275 Z-1.000000 I-2.518491 J-2.211757
G02 X55.538016 Y38.586613 Z-1.000000 I-5.756819 J-1.825662
G02 X55.256413 Y36.767084 Z-1.000000 I-6.019081 J-0.000000
G02 X54.578954 Y35.562425 Z-1.000000 I-3.232895 J1.025249
G02 X53.481230 Y34.776681 Z-1.000000 I-2.235076 J1.962854
G02 X51.939793 Y34.470357 Z-1.000000 I-1.541437 J3.725138
G02 X50.391618 Y34.777267 Z-1.000000 I-0.000000 J4.058259
G02 X49.293626 Y35.562425 Z-1.000000 I1.132406 J2.743910
G02 X48.621402 Y36.765841 Z-1.000000 I2.566150 J2.222902
G02 X48.341569 Y38.586613 Z-1.000000 I5.783639 J1.820771
G02 X48.622346 Y40.413526 Z-1.000000 I6.083925 J-0.000000
G02 X49.293626 Y41.610800 Z-1.000000 I3.200286 J-1.007495
G02 X50.391618 Y42.395958 Z-1.000000 I2.230399 J-1.958752
G02 X51.939793 Y42.702868 Z-1.000000 I1.548174 J-3.751348
G01 X51.939793 Y42.702868 Z-1.000000
G00 Z10.000000

(End cutting path id: path3360)


(Start cutting path id: path3358)
(Change tool to Cone cutter)

G00 Z10.000000
G00 X44.925357 Y45.566045

G01 Z-1.000000 F100.0(Penetrate)
G01 X46.213439 Y45.566045 Z-1.000000 F400.000000
G01 X46.213439 Y34.673370 Z-1.000000
G01 X44.925357 Y34.673370 Z-1.000000
G01 X44.925357 Y45.566045 Z-1.000000
G01 X44.925357 Y45.566045 Z-1.000000
G00 Z10.000000

(End cutting path id: path3358)


(Start cutting path id: path3356)
(Change tool to Cone cutter)

G00 Z10.000000
G00 X40.949111 Y45.566045

G01 Z-1.000000 F100.0(Penetrate)
G01 X42.237190 Y45.566045 Z-1.000000 F400.000000
G01 X42.237190 Y34.673370 Z-1.000000
G01 X40.949111 Y34.673370 Z-1.000000
G01 X40.949111 Y45.566045 Z-1.000000
G01 X40.949111 Y45.566045 Z-1.000000
G00 Z10.000000

(End cutting path id: path3356)


(Start cutting path id: path3354)
(Change tool to Cone cutter)

G00 Z10.000000
G00 X38.834979 Y38.915633

G01 Z-1.000000 F100.0(Penetrate)
G01 X38.834979 Y38.285594 Z-1.000000 F400.000000
G01 X32.912612 Y38.285594 Z-1.000000
G03 X33.188824 Y37.043472 Z-1.000000 I4.093712 J0.258550
G03 X33.710661 Y36.255468 Z-1.000000 I2.106054 J0.827897
G03 X34.512958 Y35.764214 Z-1.000000 I1.519622 J1.581019
G03 X35.712785 Y35.562425 Z-1.000000 I1.199827 J3.466167
G03 X36.448829 Y35.608915 Z-1.000000 I-0.000000 J5.849911
G03 X37.147874 Y35.744436 Z-1.000000 I-0.686121 J5.409796
G03 X37.832045 Y35.967236 Z-1.000000 I-1.498469 J5.763352
G03 X38.533960 Y36.290470 Z-1.000000 I-2.517518 J6.390627
G01 X38.533960 Y35.072395 Z-1.000000
G02 X37.830084 Y34.812810 Z-1.000000 I-3.058898 J7.210247
G02 X37.112873 Y34.624367 Z-1.000000 I-2.300945 J7.298308
G02 X36.380775 Y34.509091 Z-1.000000 I-1.467372 J6.936677
G02 X35.635781 Y34.470357 Z-1.000000 I-0.744994 J7.145173
G02 X33.887769 Y34.781035 Z-1.000000 I0.000000 J5.072889
G02 X32.660596 Y35.562425 Z-1.000000 I1.173741 J3.197692
G02 X31.878706 Y36.782972 Z-1.000000 I2.394909 J2.394909
G02 X31.568529 Y38.516608 Z-1.000000 I4.689707 J1.733636
G02 X31.867146 Y40.325329 Z-1.000000 I5.627010 J-0.000000
G02 X32.604593 Y41.568797 Z-1.000000 I3.313820 J-1.124875
G02 X33.786320 Y42.386939 Z-1.000000 I2.406395 J-2.213289
G02 X35.411767 Y42.702868 Z-1.000000 I1.625447 J-4.023482
G02 X36.866265 Y42.416943 Z-1.000000 I0.000000 J-3.842470
G02 X37.910921 Y41.680804 Z-1.000000 I-1.081088 J-2.643481
G02 X38.567153 Y40.562093 Z-1.000000 I-2.322256 J-2.114055
G02 X38.834979 Y38.915633 Z-1.000000 I-4.926904 J-1.646460
G01 X38.834979 Y38.915633 Z-1.000000
G00 Z10.000000

(End cutting path id: path3354)


(Start cutting path id: path3354)
(Change tool to Cone cutter)

G00 Z10.000000
G00 X37.546899 Y39.293656

G01 Z-1.000000 F100.0(Penetrate)
G03 X37.370270 Y40.285934 Z-1.000000 I-3.106672 J-0.041140 F400.000000
G03 X36.951862 Y40.980761 Z-1.000000 I-1.897520 J-0.669250
G03 X36.301150 Y41.437208 Z-1.000000 I-1.345111 J-1.225544
G03 X35.425768 Y41.610800 Z-1.000000 I-0.875382 J-2.120371
G03 X34.415871 Y41.438142 Z-1.000000 I0.000000 J-3.039837
G03 X33.696660 Y41.001762 Z-1.000000 I0.680856 J-1.933007
G03 X33.215151 Y40.314043 Z-1.000000 I1.434092 J-1.516509
G03 X32.954615 Y39.286656 Z-1.000000 I3.053300 J-1.321019
G01 X37.546899 Y39.293658 Z-1.000000
G01 X37.546899 Y39.293656 Z-1.000000
G00 Z10.000000

(End cutting path id: path3354)


(Start cutting path id: path3352)
(Change tool to Cone cutter)

G00 Z10.000000
G00 X21.403899 Y45.125018

G01 Z-1.000000 F100.0(Penetrate)
G01 X22.817986 Y45.125018 Z-1.000000 F400.000000
G01 X22.817986 Y40.840752 Z-1.000000
G01 X27.956305 Y40.840752 Z-1.000000
G01 X27.956305 Y45.125018 Z-1.000000
G01 X29.370392 Y45.125018 Z-1.000000
G01 X29.370392 Y34.673370 Z-1.000000
G01 X27.956305 Y34.673370 Z-1.000000
G01 X27.956305 Y39.650678 Z-1.000000
G01 X22.817986 Y39.650678 Z-1.000000
G01 X22.817986 Y34.673370 Z-1.000000
G01 X21.403899 Y34.673370 Z-1.000000
G01 X21.403899 Y45.125018 Z-1.000000
G01 X21.403899 Y45.125018 Z-1.000000
G00 Z10.000000

(End cutting path id: path3352)


(Footer)
M5
G00 X0.0000 Y0.0000
M2
(Using default footer. To add your own footer create file "footer" in the output dir.)
(end)
%